img/nf-fit.svg

<svg width="360" height="120" viewBox="0 0 360 120" fill="none" xmlns="http://www.w3.org/2000/svg">
<path d="M0.516968 76.5001C2.58485 72.7501 6.34464 71.1429 9.63446 72.7501C12.9243 74.3572 13.8642 79.7143 17.624 80.7858C23.2637 82.3929 28.9034 77.5715 29.3734 71.1429C29.3734 71.1429 33.2741 3.05364 33.3681 0.910787L41.7807 119.304C41.7807 119.304 43.4726 83.4108 47.0444 78.5894C49.0183 75.9108 51.3211 76.5536 53.671 78.1072C54.705 78.8572 56.2089 80.0894 57.5248 79.2322C59.3577 78.0001 58.7937 74.5715 60.3446 73.0715C61.5196 71.9465 62.9295 72.8572 64.1044 73.4465C66.4543 74.7322 68.6632 75.2679 70.3081 72.3215C72 69.2679 71.295 61.1786 75.0548 59.8394C78.2976 58.7144 79.5666 66.6965 80.1305 69.0001C80.9765 72.2143 81.6345 75.4822 82.6684 78.6429C83.2324 80.3572 84.4543 84.7501 86.4752 82.2322C88.4961 79.7143 88.919 72.0536 93.2428 73.2858C97.4256 74.5179 97.5666 80.5715 100.245 83.5715C101.138 84.5893 102.313 85.1786 103.629 85.1786C102.501 79.3393 108.376 74.5715 112.794 77.9465C115.426 80.6786 119.185 83.3572 122.475 81.2143C124.825 79.0715 125.765 71.0358 125.765 71.0358L134.788 1.76792L141.885 114.857L145.504 84.4822C145.974 81.8036 146.444 79.1251 148.324 78.0536C150.674 76.9822 153.023 79.1251 155.373 77.5179C157.723 76.4465 158.663 73.2322 161.953 72.6965L176.475 73.2858C169.802 68.0358 176.475 73.2858 176.475 73.2858C169.802 68.0358 161.577 63.0536 158.287 54.0536C156.642 49.6072 156.36 43.7143 159.274 39.8036C161.859 36.3751 166.136 35.8929 169.567 37.8215C173.561 40.0715 176.005 44.7858 177.556 49.3929C179.107 45.2679 180.658 40.7144 183.901 37.8751C186.392 35.6786 190.151 35.1429 192.971 36.2144C197.201 38.3572 200.491 43.1786 199.551 49.0715C197.201 60.8572 188.272 66.7501 180.658 73.2322C180.799 73.2322 180.799 73.2322 180.658 73.2322L199.081 72.6429C201.431 72.1072 201.901 67.2858 204.721 68.3572C207.54 69.4286 208.48 73.7143 209.89 76.9286C211.3 80.1429 213.18 82.8215 216.94 82.2858C220.23 81.7501 222.58 79.6072 224.459 76.3929C225.399 74.2501 226.339 68.8929 226.339 68.8929L231.18 0.589355C231.227 1.28578 231.133 1.28578 231.18 0.589355C231.18 1.28578 239.029 119.196 239.029 119.196L246.172 80.4644C246.736 78.3751 246.83 75.7501 249.18 76.7144C250.684 77.3572 252.235 78.9108 253.927 78.7501C255.854 78.5358 256.23 76.1786 256.794 74.5179C257.687 71.6786 260.084 73.0715 261.916 73.8215C263.937 74.6786 266.616 75.1608 267.932 72.7501C269.06 70.6608 269.436 68.3572 269.859 66.0536C270.235 64.0715 270.752 61.6608 272.256 60.3751C273.243 59.5179 273.901 60.5894 274.606 61.5536C275.264 62.4108 275.781 63.3751 276.204 64.3929C277.943 68.5715 278.084 73.3393 279.305 77.7322C279.728 79.1251 279.775 81.3751 281.279 81.8572C282.971 82.3929 284.24 81.0536 284.851 79.4465C285.509 77.8393 285.697 75.8036 286.872 74.5179C288.047 73.2322 289.598 73.0715 290.914 74.0893C295.191 77.3036 295.191 84.6429 300.454 86.4108C299.89 86.1965 300.313 82.6072 300.407 82.1251C300.689 80.7858 301.441 79.6072 302.287 78.6429C303.885 76.8215 306.141 76.2858 308.115 77.5715C311.405 79.7143 314.694 82.3929 318.454 79.7143C319.864 78.6429 331.144 3.64292 331.52 1.87507C331.473 2.1965 331.473 2.1965 331.52 1.87507C331.52 2.62507 335.843 77.5715 338.616 114.964C338.663 114.214 338.663 114.214 338.616 114.964C338.616 114.964 341.483 82.9822 345.713 77.0894C347.123 75.4822 349.943 78.1608 351.822 78.1608C354.642 78.1608 356.522 74.9465 359.107 73.8751" stroke="#292929" stroke-miterlimit="10" stroke-linecap="round" stroke-linejoin="round"/>
</svg>

<svg width="360" height="120" fill="none" xmlns="http://www.w3.org/2000/svg"><path d="M.517 76.5c2.068-3.75 5.828-5.357 9.117-3.75 3.29 1.607 4.23 6.964 7.99 8.036 5.64 1.607 11.28-3.215 11.75-9.643 0 0 3.9-68.09 3.994-70.232l8.413 118.393s1.692-35.893 5.263-40.715c1.974-2.678 4.277-2.035 6.627-.482 1.034.75 2.538 1.982 3.854 1.125 1.833-1.232 1.269-4.66 2.82-6.16 1.175-1.126 2.584-.215 3.76.374 2.35 1.286 4.558 1.822 6.203-1.124 1.692-3.054.987-11.143 4.747-12.483 3.243-1.125 4.512 6.858 5.075 9.161.847 3.214 1.505 6.482 2.538 9.643.564 1.714 1.786 6.107 3.807 3.59 2.021-2.519 2.444-10.18 6.768-8.947 4.183 1.232 4.324 7.285 7.002 10.285.893 1.018 2.068 1.608 3.384 1.608-1.128-5.84 4.747-10.608 9.165-7.233 2.632 2.733 6.391 5.411 9.681 3.268 2.35-2.142 3.29-10.178 3.29-10.178l9.023-69.268 7.097 113.089 3.619-30.375c.47-2.678.94-5.357 2.82-6.428 2.35-1.072 4.699 1.071 7.049-.536 2.35-1.072 3.29-4.286 6.58-4.822l14.522.59c-6.673-5.25 0 0 0 0-6.673-5.25-14.898-10.232-18.188-19.232-1.645-4.447-1.927-10.34.987-14.25 2.585-3.429 6.862-3.911 10.293-1.983 3.994 2.25 6.438 6.965 7.989 11.572 1.551-4.125 3.102-8.679 6.345-11.518 2.491-2.196 6.25-2.732 9.07-1.66 4.23 2.142 7.52 6.964 6.58 12.856-2.35 11.786-11.279 17.68-18.893 24.161.141 0 .141 0 0 0l18.423-.59c2.35-.535 2.82-5.356 5.64-4.285 2.819 1.072 3.759 5.357 5.169 8.572 1.41 3.214 3.29 5.892 7.05 5.357 3.29-.536 5.64-2.679 7.519-5.893.94-2.143 1.88-7.5 1.88-7.5L231.18.589c.047.697-.047.697 0 0 0 .697 7.849 118.607 7.849 118.607l7.143-38.732c.564-2.089.658-4.714 3.008-3.75 1.504.643 3.055 2.197 4.747 2.036 1.927-.214 2.303-2.571 2.867-4.232.893-2.84 3.29-1.447 5.122-.697 2.021.858 4.7 1.34 6.016-1.07 1.128-2.09 1.504-4.394 1.927-6.697.376-1.983.893-4.393 2.397-5.679.987-.857 1.645.214 2.35 1.179.658.857 1.175 1.821 1.598 2.839 1.739 4.178 1.88 8.946 3.101 13.34.423 1.392.47 3.642 1.974 4.124 1.692.536 2.961-.803 3.572-2.41.658-1.608.846-3.643 2.021-4.93 1.175-1.285 2.726-1.445 4.042-.428 4.277 3.215 4.277 10.554 9.54 12.322-.564-.215-.141-3.804-.047-4.286.282-1.34 1.034-2.518 1.88-3.482 1.598-1.822 3.854-2.357 5.828-1.072 3.29 2.143 6.579 4.822 10.339 2.143 1.41-1.071 12.69-76.071 13.066-77.839-.047.321-.047.321 0 0 0 .75 4.323 75.697 7.096 113.089.047-.75.047-.75 0 0 0 0 2.867-31.982 7.097-37.875 1.41-1.607 4.23 1.072 6.109 1.072 2.82 0 4.7-3.215 7.285-4.286" stroke="#292929" stroke-miterlimit="10" stroke-linecap="round" stroke-linejoin="round"/></svg>
